X:788
M:C|
L:1/8
K:A
|:e|cAeA fAeA|cAeA fBBe|1 cAeAfAeA|EFAB cAA:|2 ceAc dfBc|EFAB cAA|]
"variations:last ending"
ceAc dfBa|gbeg aAA|]

